src/animations/24/nm-stage01-connecting07.svg

<?xml version="1.0" encoding="UTF-8" standalone="no"?>
<!-- Created with Inkscape (http://www.inkscape.org/) -->

<svg
   xmlns:dc="http://purl.org/dc/elements/1.1/"
   xmlns:cc="http://creativecommons.org/ns#"
   xmlns:rdf="http://www.w3.org/1999/02/22-rdf-syntax-ns#"
   xmlns:svg="http://www.w3.org/2000/svg"
   xmlns="http://www.w3.org/2000/svg"
   xmlns:inkscape="http://www.inkscape.org/namespaces/inkscape"
   version="1.0"
   width="24"
   height="24"
   id="svg3315">
  <metadata
     id="metadata30">
    <rdf:RDF>
      <cc:Work
         rdf:about="">
        <dc:format>image/svg+xml</dc:format>
        <dc:type
           rdf:resource="http://purl.org/dc/dcmitype/StillImage" />
      </cc:Work>
    </rdf:RDF>
  </metadata>
  <defs
     id="defs3317" />
  <path
     d="m 12.506237,8.4879748 0,-5.0004523"
     inkscape:connector-curvature="0"
     id="path3279"
     style="opacity:0.2;fill:none;stroke:#878787;stroke-width:1px;stroke-linecap:round;stroke-linejoin:miter;stroke-opacity:1" />
  <path
     d="m 12.506239,21.499999 -2e-6,-5.002716"
     inkscape:connector-curvature="0"
     id="path3281"
     style="fill:none;stroke:#878787;stroke-width:1px;stroke-linecap:round;stroke-linejoin:miter;stroke-opacity:1" />
  <path
     d="M 11.469463,8.6244699 10.175251,3.7944029"
     inkscape:connector-curvature="0"
     id="path2629"
     style="opacity:0.175;fill:none;stroke:#878787;stroke-width:1px;stroke-linecap:round;stroke-linejoin:miter;stroke-opacity:1" />
  <path
     d="m 14.837225,21.193119 -1.2948,-4.832254"
     inkscape:connector-curvature="0"
     id="path2631"
     style="opacity:0.875;fill:none;stroke:#878787;stroke-width:1px;stroke-linecap:round;stroke-linejoin:miter;stroke-opacity:1" />
  <path
     d="M 10.503344,9.0246491 8.003118,4.69413"
     inkscape:connector-curvature="0"
     id="path3403"
     style="opacity:0.15;fill:none;stroke:#878787;stroke-width:1px;stroke-linecap:round;stroke-linejoin:miter;stroke-opacity:1" />
  <path
     d="m 17.009358,20.293392 -2.50136,-4.332479"
     inkscape:connector-curvature="0"
     id="path3405"
     style="opacity:0.75;fill:none;stroke:#878787;stroke-width:1px;stroke-linecap:round;stroke-linejoin:miter;stroke-opacity:1" />
  <path
     d="M 9.673719,9.6612441 6.1378658,6.1253876"
     inkscape:connector-curvature="0"
     id="path3407"
     style="opacity:0.125;fill:none;stroke:#878787;stroke-width:1px;stroke-linecap:round;stroke-linejoin:miter;stroke-opacity:1" />
  <path
     d="M 18.874609,18.862134 15.337155,15.324677"
     inkscape:connector-curvature="0"
     id="path3409"
     style="opacity:0.675;fill:none;stroke:#878787;stroke-width:1px;stroke-linecap:round;stroke-linejoin:miter;stroke-opacity:1" />
  <path
     d="M 9.0371236,10.490869 4.706606,7.9906424"
     inkscape:connector-curvature="0"
     id="path3415"
     style="opacity:0.1;fill:none;stroke:#878787;stroke-width:1px;stroke-linecap:round;stroke-linejoin:miter;stroke-opacity:1" />
  <path
     d="m 20.305869,16.996881 -4.33248,-2.501358"
     inkscape:connector-curvature="0"
     id="path3417"
     style="opacity:0.6;fill:none;stroke:#878787;stroke-width:1px;stroke-linecap:round;stroke-linejoin:miter;stroke-opacity:1" />
  <path
     d="M 8.6369453,11.45699 3.8068792,10.162776"
     inkscape:connector-curvature="0"
     id="path3419"
     style="opacity:0.075;fill:none;stroke:#878787;stroke-width:1px;stroke-linecap:round;stroke-linejoin:miter;stroke-opacity:1" />
  <path
     d="M 21.205596,14.824748 16.373342,13.52995"
     inkscape:connector-curvature="0"
     id="path3421"
     style="opacity:0.55;fill:none;stroke:#878787;stroke-width:1px;stroke-linecap:round;stroke-linejoin:miter;stroke-opacity:1" />
  <path
     d="m 8.5004519,12.493762 -5.000452,-1e-6"
     inkscape:connector-curvature="0"
     id="path3423"
     style="opacity:0.05;fill:none;stroke:#878787;stroke-width:1px;stroke-linecap:round;stroke-linejoin:miter;stroke-opacity:1" />
  <path
     d="m 21.512476,12.49376 -5.002717,10e-7"
     inkscape:connector-curvature="0"
     id="path3425"
     style="opacity:0.5;fill:none;stroke:#878787;stroke-width:1px;stroke-linecap:round;stroke-linejoin:miter;stroke-opacity:1" />
  <path
     d="M 8.6369478,13.530535 3.8068806,14.824747"
     inkscape:connector-curvature="0"
     id="path3427"
     style="opacity:0.025;fill:none;stroke:#878787;stroke-width:1px;stroke-linecap:round;stroke-linejoin:miter;stroke-opacity:1" />
  <path
     d="m 21.205596,10.162776 -4.832254,1.294798"
     inkscape:connector-curvature="0"
     id="path3429"
     style="opacity:0.45;fill:none;stroke:#878787;stroke-width:1px;stroke-linecap:round;stroke-linejoin:miter;stroke-opacity:1" />
  <path
     d="M 20.305869,7.9906412 15.97339,10.492001"
     inkscape:connector-curvature="0"
     id="path3433"
     style="opacity:0.4;fill:none;stroke:#878787;stroke-width:1px;stroke-linecap:round;stroke-linejoin:miter;stroke-opacity:1" />
  <path
     d="M 18.87461,6.12539 15.337154,9.6628455"
     inkscape:connector-curvature="0"
     id="path3437"
     style="opacity:0.35;fill:none;stroke:#878787;stroke-width:0.99999994px;stroke-linecap:round;stroke-linejoin:miter;stroke-opacity:1" />
  <path
     d="M 17.009357,4.6941293 14.507998,9.0266104"
     inkscape:connector-curvature="0"
     id="path2407"
     style="opacity:0.3;fill:none;stroke:#878787;stroke-width:1px;stroke-linecap:round;stroke-linejoin:miter;stroke-opacity:1" />
  <path
     d="m 14.837222,3.7944034 -1.294798,4.832254"
     inkscape:connector-curvature="0"
     id="path2413"
     style="opacity:0.25;fill:none;stroke:#878787;stroke-width:1px;stroke-linecap:round;stroke-linejoin:miter;stroke-opacity:1" />
  <path
     d="m 10.175253,21.193119 1.294798,-4.832254"
     inkscape:connector-curvature="0"
     id="path2401"
     style="opacity:0;fill:none;stroke:#878787;stroke-width:1px;stroke-linecap:round;stroke-linejoin:miter;stroke-opacity:1" />
  <path
     d="M 6.1378666,18.862133 9.6753207,15.324677"
     inkscape:connector-curvature="0"
     id="path2405"
     style="opacity:0;fill:none;stroke:#878787;stroke-width:1px;stroke-linecap:round;stroke-linejoin:miter;stroke-opacity:1" />
  <path
     d="M 8.0031197,20.293392 10.504476,15.960911"
     inkscape:connector-curvature="0"
     id="path2410"
     style="opacity:0;fill:none;stroke:#878787;stroke-width:1px;stroke-linecap:round;stroke-linejoin:miter;stroke-opacity:1" />
  <path
     d="M 4.7066066,16.99688 9.039086,14.495522"
     inkscape:connector-curvature="0"
     id="path2414"
     style="opacity:0;fill:none;stroke:#878787;stroke-width:1px;stroke-linecap:round;stroke-linejoin:miter;stroke-opacity:1" />
</svg>

<svg width="24" height="24" version="1.0" xmlns="http://www.w3.org/2000/svg" xmlns:cc="http://creativecommons.org/ns#" xmlns:dc="http://purl.org/dc/elements/1.1/" xmlns:rdf="http://www.w3.org/1999/02/22-rdf-syntax-ns#">
 <metadata>
  <rdf:RDF>
   <cc:Work rdf:about="">
    <dc:format>image/svg+xml</dc:format>
    <dc:type rdf:resource="http://purl.org/dc/dcmitype/StillImage"/>
   </cc:Work>
  </rdf:RDF>
 </metadata>
 <path d="m12.506 8.488v-5.0005" fill="none" opacity=".2" stroke="#878787" stroke-linecap="round" stroke-width="1px"/>
 <path d="m12.506 21.5-2e-6 -5.0027" fill="none" stroke="#878787" stroke-linecap="round" stroke-width="1px"/>
 <path d="m11.469 8.6245-1.2942-4.8301" fill="none" opacity=".175" stroke="#878787" stroke-linecap="round" stroke-width="1px"/>
 <path d="m14.837 21.193-1.2948-4.8323" fill="none" opacity=".875" stroke="#878787" stroke-linecap="round" stroke-width="1px"/>
 <path d="m10.503 9.0246-2.5002-4.3305" fill="none" opacity=".15" stroke="#878787" stroke-linecap="round" stroke-width="1px"/>
 <path d="m17.009 20.293-2.5014-4.3325" fill="none" opacity=".75" stroke="#878787" stroke-linecap="round" stroke-width="1px"/>
 <path d="m9.6737 9.6612-3.5359-3.5359" fill="none" opacity=".125" stroke="#878787" stroke-linecap="round" stroke-width="1px"/>
 <path d="m18.875 18.862-3.5375-3.5375" fill="none" opacity=".675" stroke="#878787" stroke-linecap="round" stroke-width="1px"/>
 <path d="m9.0371 10.491-4.3305-2.5002" fill="none" opacity=".1" stroke="#878787" stroke-linecap="round" stroke-width="1px"/>
 <path d="m20.306 16.997-4.3325-2.5014" fill="none" opacity=".6" stroke="#878787" stroke-linecap="round" stroke-width="1px"/>
 <path d="m8.6369 11.457-4.8301-1.2942" fill="none" opacity=".075" stroke="#878787" stroke-linecap="round" stroke-width="1px"/>
 <path d="m21.206 14.825-4.8323-1.2948" fill="none" opacity=".55" stroke="#878787" stroke-linecap="round" stroke-width="1px"/>
 <path d="m8.5005 12.494-5.0005-1e-6" fill="none" opacity=".05" stroke="#878787" stroke-linecap="round" stroke-width="1px"/>
 <path d="m21.512 12.494-5.0027 1e-6" fill="none" opacity=".5" stroke="#878787" stroke-linecap="round" stroke-width="1px"/>
 <path d="m8.6369 13.531-4.8301 1.2942" fill="none" opacity=".025" stroke="#878787" stroke-linecap="round" stroke-width="1px"/>
 <path d="m21.206 10.163-4.8323 1.2948" fill="none" opacity=".45" stroke="#878787" stroke-linecap="round" stroke-width="1px"/>
 <path d="m20.306 7.9906-4.3325 2.5014" fill="none" opacity=".4" stroke="#878787" stroke-linecap="round" stroke-width="1px"/>
 <path d="m18.875 6.1254-3.5375 3.5375" fill="none" opacity=".35" stroke="#878787" stroke-linecap="round" stroke-width="1px"/>
 <path d="m17.009 4.6941-2.5014 4.3325" fill="none" opacity=".3" stroke="#878787" stroke-linecap="round" stroke-width="1px"/>
 <path d="m14.837 3.7944-1.2948 4.8323" fill="none" opacity=".25" stroke="#878787" stroke-linecap="round" stroke-width="1px"/>
 <path d="m10.175 21.193 1.2948-4.8323" opacity="0" stroke-width="1px"/>
 <path d="m6.1379 18.862 3.5375-3.5375" opacity="0" stroke-width="1px"/>
 <path d="m8.0031 20.293 2.5014-4.3325" opacity="0" stroke-width="1px"/>
 <path d="m4.7066 16.997 4.3325-2.5014" opacity="0" stroke-width="1px"/>
</svg>
